img/svg/landingsside/oppgaver.svg

<?xml version="1.0" encoding="UTF-8"?>
<svg width="100px" height="100px" viewBox="0 0 100 100" version="1.1" xmlns="http://www.w3.org/2000/svg" xmlns:xlink="http://www.w3.org/1999/xlink">
    <!-- Generator: Sketch 47.1 (45422) - http://www.bohemiancoding.com/sketch -->
    <title>Oppgaver</title>
    <desc>Created with Sketch.</desc>
    <defs>
        <polygon id="path-1" points="47 0.583583333 47 58.3148148 0.000522222222 58.3148148 0.000522222222 0.583583333"></polygon>
        <polygon id="path-3" points="0 63 47 63 47 0 0 0"></polygon>
    </defs>
    <g id="Landingssiden" stroke="none" stroke-width="1" fill="none" fill-rule="evenodd">
        <g id="Ditt_Sykefravær_med-oppgaver" transform="translate(-224.000000, -474.000000)">
            <g id="Oppgaver" transform="translate(224.000000, 474.000000)">
                <circle id="Oval" fill="#DADE99" cx="50" cy="50" r="50"></circle>
                <g id="Page-1" transform="translate(26.000000, 19.000000)">
                    <g id="Group-3" transform="translate(0.000000, 5.000000)">
                        <mask id="mask-2" fill="white">
                            <use xlink:href="#path-1"></use>
                        </mask>
                        <g id="Clip-2"></g>
                        <path d="M43.9455222,0.583583333 L3.05378148,0.583583333 C1.36613333,0.583583333 0.000522222222,1.95093519 0.000522222222,3.64032407 L0.000522222222,55.2593796 C0.000522222222,55.5744537 0.0483925926,55.8808241 0.13717037,56.1663056 C0.286003704,56.6458796 0.550596296,57.0732315 0.897003704,57.4205093 C0.964022222,57.4866574 1.03713333,57.5554167 1.1145963,57.6163426 C1.56457778,57.9906019 2.12683704,58.2343056 2.74044815,58.298713 C2.84489259,58.3091574 2.94933704,58.31525 3.05378148,58.31525 L43.9455222,58.31525 C45.6331704,58.31525 47.0005222,56.9461574 47.0005222,55.2593796 L47.0005222,3.64032407 C47.0005222,1.95093519 45.6331704,0.583583333 43.9455222,0.583583333" id="Fill-1" fill="#515658" mask="url(#mask-2)"></path>
                    </g>
                    <path d="M4,16.4927076 L4,56.4219973 C4,57.8483871 5.13536241,59 6.53412201,59 L40.4650172,59 C41.8646376,59 43,57.8483871 43,56.4219973 L43,10.5771277 C43,9.15336307 41.8646376,8 40.4650172,8 L12.8212236,8 L4,16.4927076 Z" id="Fill-4" fill="#FFFFFF"></path>
                    <path d="M13,8 L13,13.5699124 C13,14.9119011 11.8425059,16 10.4145199,16 L4,16 L13,8 Z" id="Fill-6" fill="#C0C0BE"></path>
                    <path d="M23.501321,6.91013127 C22.9482735,6.91013127 22.5009038,6.4843487 22.5009038,5.9559071 C22.5009038,5.4274655 22.9482735,4.99915853 23.501321,4.99915853 C24.0517265,4.99915853 24.5008575,5.4274655 24.5008575,5.9559071 C24.5008575,6.4843487 24.0517265,6.91013127 23.501321,6.91013127 M29.6773117,3.00319758 L25.9556895,3.00319758 L25.9556895,2.34601144 C25.9556895,1.05015146 24.855759,0 23.501321,0 C22.1424797,0 21.0451912,1.05015146 21.0451912,2.34601144 L21.0451912,3.00319758 L17.3235689,3.00319758 C15.4891773,3.00319758 14,4.42611915 14,6.17973746 L14,10 L33,10 L33,6.17973746 C33,4.42611915 31.5117034,3.00319758 29.6773117,3.00319758" id="Fill-8" fill="#2F3237"></path>
                    <mask id="mask-4" fill="white">
                        <use xlink:href="#path-3"></use>
                    </mask>
                    <g id="Clip-11"></g>
                    <polygon id="Fill-10" fill="#A59D96" mask="url(#mask-4)" points="17 32 36 32 36 30 17 30"></polygon>
                    <polygon id="Fill-12" fill="#A59D96" mask="url(#mask-4)" points="17 37 36 37 36 35 17 35"></polygon>
                    <polygon id="Fill-13" fill="#A59D96" mask="url(#mask-4)" points="17 42 36 42 36 40 17 40"></polygon>
                    <polygon id="Fill-14" fill="#A59D96" mask="url(#mask-4)" points="17 47 36 47 36 45 17 45"></polygon>
                    <path d="M15,29 L14.1272093,29 L11.8727907,29 L11,29 L11,29.8998875 L11,32.1001125 L11,33 L11.8727907,33 L14.1272093,33 L15,33 L15,32.1001125 L15,29.8998875 L15,29 Z M11.8727907,32.1001125 L14.1272093,32.1001125 L14.1272093,29.8998875 L11.8727907,29.8998875 L11.8727907,32.1001125 Z" id="Fill-15" fill="#A59D96" mask="url(#mask-4)"></path>
                    <path d="M15,34 L14.1272093,34 L11.8727907,34 L11,34 L11,34.90009 L11,37.09991 L11,38 L11.8727907,38 L14.1272093,38 L15,38 L15,37.09991 L15,34.90009 L15,34 Z M11.8727907,37.09991 L14.1272093,37.09991 L14.1272093,34.90009 L11.8727907,34.90009 L11.8727907,37.09991 Z" id="Fill-16" fill="#A59D96" mask="url(#mask-4)"></path>
                    <path d="M15,39 L14.1272093,39 L11.8727907,39 L11,39 L11,39.90009 L11,42.09991 L11,43 L11.8727907,43 L14.1272093,43 L15,43 L15,42.09991 L15,39.90009 L15,39 Z M11.8727907,42.09991 L14.1272093,42.09991 L14.1272093,39.90009 L11.8727907,39.90009 L11.8727907,42.09991 Z" id="Fill-17" fill="#A59D96" mask="url(#mask-4)"></path>
                    <path d="M15,44 L14.1272093,44 L11.8727907,44 L11,44 L11,44.90009 L11,47.09991 L11,48 L11.8727907,48 L14.1272093,48 L15,48 L15,47.09991 L15,44.90009 L15,44 Z M11.8727907,47.09991 L14.1272093,47.09991 L14.1272093,44.90009 L11.8727907,44.90009 L11.8727907,47.09991 Z" id="Fill-18" fill="#A59D96" mask="url(#mask-4)"></path>
                    <polyline id="Stroke-19" stroke="#2F3237" stroke-width="2.24" mask="url(#mask-4)" points="11 29.4825939 13.0771743 32 16 28"></polyline>
                    <polyline id="Stroke-20" stroke="#2F3237" stroke-width="2.24" mask="url(#mask-4)" points="11 34.4825939 13.0771743 37 16 33"></polyline>
                </g>
            </g>
        </g>
    </g>
</svg>

<svg width="100" height="100" viewBox="0 0 100 100" xmlns="http://www.w3.org/2000/svg" xmlns:xlink="http://www.w3.org/1999/xlink"><defs><path id="a" d="M47 .584v57.73H0V.585z"/><path id="c" d="M0 63h47V0H0z"/></defs><g fill="none" fill-rule="evenodd"><circle fill="#DADE99" cx="50" cy="50" r="50"/><g transform="translate(26 19)"><g transform="translate(0 5)"><mask id="b" fill="#fff"><use xlink:href="#a"/></mask><path d="M43.946.584H3.054A3.053 3.053 0 0 0 0 3.64v51.62c0 .314.047.62.136.906a3.062 3.062 0 0 0 2.917 2.15h40.892A3.056 3.056 0 0 0 47 55.258V3.64A3.055 3.055 0 0 0 43.946.584" fill="#515658" mask="url(#b)"/></g><path d="M4 16.493v39.929C4 57.848 5.135 59 6.534 59h33.931c1.4 0 2.535-1.152 2.535-2.578V10.577C43 9.153 41.865 8 40.465 8H12.821L4 16.493z" fill="#FFF"/><path d="M13 8v5.57c0 1.342-1.157 2.43-2.585 2.43H4l9-8z" fill="#C0C0BE"/><path d="M23.501 6.91c-.553 0-1-.426-1-.954 0-.529.447-.957 1-.957.55 0 1 .428 1 .957 0 .528-.45.954-1 .954m6.176-3.907h-3.721v-.657C25.956 1.05 24.856 0 23.5 0c-1.359 0-2.456 1.05-2.456 2.346v.657h-3.721C15.489 3.003 14 4.426 14 6.18V10h19V6.18c0-1.754-1.488-3.177-3.323-3.177" fill="#2F3237"/><mask id="d" fill="#fff"><use xlink:href="#c"/></mask><path fill="#A59D96" mask="url(#d)" d="M17 32h19v-2H17zM17 37h19v-2H17zM17 42h19v-2H17zM17 47h19v-2H17zM15 29h-4v4h4v-4zm-3.127 3.1h2.254v-2.2h-2.254v2.2zM15 34h-4v4h4v-4zm-3.127 3.1h2.254v-2.2h-2.254v2.2zM15 39h-4v4h4v-4zm-3.127 3.1h2.254v-2.2h-2.254v2.2zM15 44h-4v4h4v-4zm-3.127 3.1h2.254v-2.2h-2.254v2.2z"/><path stroke="#2F3237" stroke-width="2.24" mask="url(#d)" d="M11 29.483L13.077 32 16 28M11 34.483L13.077 37 16 33"/></g></g></svg>
